X: 15339
T: Gladstone, The
R: reel
M: 4/4
K: Gmajor
dc|B3c defg|G2BG AFD2|B3c defg|dcBA GBdc|
BABc defg|G2BG AFD2|BABc defg|dcBA G2:|
|:Bd|g2bg f2af|e2ge dcBd|c2ec B2dB|AGAB cdef|
[1 g2bg f2af|e2ge dcBd|cdec B2dB|AGFA|G2:|
[2 gG G2 BGBd|g2fg edBd|cdec B2dB|AGAB G2||

